X: 1
T: Walled Garden, The
C: Andy Cutting
R: Waltz
M: 3/4
L: 1/8
K: G
r: 32
|: "G" D2 G3 D | "Bm" AB G2 AB | "C" cB AB AG | "C/D" FG EF DB, | "G" D2 G3 D | "Bm" AB G2 AB | "C" cB AB AG |[1 "D" A3 A GE :|[2 "D" A3 A Bc ] |
|: "G" d2B2G2 | "C" ed cd cB | "Am" cB AB AG | "D" FG EF D2 | "G" d2B2G2 | "C" ed cd cB | "Am" cB AB AG |[1 "D" A3 A Bc :|[2 "D" A3 A G E ] |]
